icons/3_Generic/Money.svg

<svg width="1024" height="1024" viewBox="0 0 1024 1024" fill="none" xmlns="http://www.w3.org/2000/svg">
<g clip-path="url(#clip0_3_413)">
<path d="M512 1024C794.77 1024 1024 794.77 1024 512C1024 229.23 794.77 0 512 0C229.23 0 0 229.23 0 512C0 794.77 229.23 1024 512 1024Z" fill="#8C72BD"/>
<path d="M512 604.75C563.22 604.75 604.75 563.23 604.75 512C604.75 460.77 563.23 419.25 512 419.25C460.77 419.25 419.25 460.77 419.25 512C419.25 563.23 460.77 604.75 512 604.75ZM512 448.55C547.05 448.55 575.46 476.96 575.46 512.01C575.46 547.06 547.05 575.47 512 575.47C476.95 575.47 448.54 547.06 448.54 512.01C448.54 476.96 476.95 448.55 512 448.55ZM785.36 341.16H238.64C230.55 341.16 224 347.72 224 355.8V668.21C224 676.3 230.56 682.85 238.64 682.85H785.35C793.44 682.85 799.99 676.29 799.99 668.21V355.8C799.99 347.71 793.43 341.16 785.35 341.16H785.36ZM253.29 465.2C299.57 452.89 335.72 416.74 348.04 370.45H675.97C688.28 416.73 724.43 452.88 770.72 465.2V558.82C724.44 571.13 688.29 607.28 675.97 653.57H348.04C335.73 607.29 299.58 571.14 253.29 558.82V465.2ZM770.71 434.62C755.877 429.438 742.404 420.977 731.294 409.866C720.183 398.756 711.722 385.283 706.54 370.45H770.71V434.62ZM317.45 370.45C312.268 385.283 303.806 398.756 292.696 409.866C281.586 420.977 268.113 429.438 253.28 434.62V370.45H317.45ZM253.28 589.4C268.113 594.582 281.586 603.044 292.696 614.154C303.806 625.264 312.268 638.737 317.45 653.57H253.28V589.4ZM706.54 653.57C711.722 638.737 720.183 625.264 731.294 614.154C742.404 603.044 755.877 594.582 770.71 589.4V653.57H706.54Z" fill="white"/>
</g>
<defs>
<clipPath id="clip0_3_413">
<rect width="1024" height="1024" fill="white"/>
</clipPath>
</defs>
</svg>

<svg xmlns="http://www.w3.org/2000/svg" width="1024" height="1024" fill="none">
   <g clip-path="url(#a)">
      <path fill="#8C72BD" d="M512 1024c282.77 0 512-229.23 512-512S794.77 0 512 0 0 229.23 0 512s229.23 512 512 512Z"/>
      <path fill="#fff" d="M512 604.75c51.22 0 92.75-41.52 92.75-92.75s-41.52-92.75-92.75-92.75-92.75 41.52-92.75 92.75 41.52 92.75 92.75 92.75Zm0-156.2c35.05 0 63.46 28.41 63.46 63.46s-28.41 63.46-63.46 63.46-63.46-28.41-63.46-63.46 28.41-63.46 63.46-63.46Zm273.36-107.39H238.64c-8.09 0-14.64 6.56-14.64 14.64v312.41c0 8.09 6.56 14.64 14.64 14.64h546.71c8.09 0 14.64-6.56 14.64-14.64V355.8c0-8.09-6.56-14.64-14.64-14.64h.01ZM253.29 465.2c46.28-12.31 82.43-48.46 94.75-94.75h327.93c12.31 46.28 48.46 82.43 94.75 94.75v93.62c-46.28 12.31-82.43 48.46-94.75 94.75H348.04c-12.31-46.28-48.46-82.43-94.75-94.75V465.2Zm517.42-30.58a104.46 104.46 0 0 1-39.416-24.754 104.46 104.46 0 0 1-24.754-39.416h64.17v64.17Zm-453.26-64.17a104.472 104.472 0 0 1-64.17 64.17v-64.17h64.17ZM253.28 589.4a104.472 104.472 0 0 1 64.17 64.17h-64.17V589.4Zm453.26 64.17a104.472 104.472 0 0 1 64.17-64.17v64.17h-64.17Z"/>
   </g>
   <defs>
      <clipPath id="a">
         <path fill="#fff" d="M0 0h1024v1024H0z"/>
      </clipPath>
   </defs>
</svg>
